img/svg/checkmark2-icon.svg

<svg width="56" height="56" fill="none" xmlns="http://www.w3.org/2000/svg"><rect width="56" height="56" rx="12" fill="#DCF2ED"/><path d="M32.59 23.58 26 30.17l-3.59-3.58L21 28l5 5 8-8-1.41-1.42ZM28 18c-5.52 0-10 4.48-10 10s4.48 10 10 10 10-4.48 10-10-4.48-10-10-10Zm0 18c-4.42 0-8-3.58-8-8s3.58-8 8-8 8 3.58 8 8-3.58 8-8 8Z" fill="#20484F"/></svg>

<svg width="56" height="56" viewBox="0 0 56 56" fill="none" xmlns="http://www.w3.org/2000/svg">
<rect width="56" height="56" rx="12" fill="#DCF2ED"/>
<path d="M32.59 23.58L26 30.17L22.41 26.59L21 28L26 33L34 25L32.59 23.58ZM28 18C22.48 18 18 22.48 18 28C18 33.52 22.48 38 28 38C33.52 38 38 33.52 38 28C38 22.48 33.52 18 28 18ZM28 36C23.58 36 20 32.42 20 28C20 23.58 23.58 20 28 20C32.42 20 36 23.58 36 28C36 32.42 32.42 36 28 36Z" fill="#20484F"/>
</svg>
